X:60
T: Grumbling Old Man And Woman, The
M: 4/4
L: 1/8
R: reel
K: Ador
CA,[EA,]A, CA,[EA,]A,|B,G,[DG,]G, B,G,[DG,]G,|CA,[EA,]A, CA,[EA,]A,|1 B,A,G,B, A,2A,B,:|2 B,A,G,B, A,2z2||
e2ed ^cdef|g2gf ed^cd|efed ^cded|eaa^g a2ef|
=gfed ^cdef|g2ge dBGB|=c2Bc AGEF|GEDB, A,2A,B,|]
